toggle-switch-variant.svg

<svg fill="currentColor" viewBox="0 0 24 24"><path d="M18.4 1.6C18 1.2 17.5 1 17 1H7c-.5 0-1 .2-1.4.6S5 2.5 5 3v18c0 .5.2 1 .6 1.4s.9.6 1.4.6h10c.5 0 1-.2 1.4-.6s.6-.9.6-1.4V3c0-.5-.2-1-.6-1.4M16 7c0 .6-.4 1-1 1H9c-.6 0-1-.4-1-1V5c0-.6.4-1 1-1h6c.6 0 1 .4 1 1z"/></svg>

<svg  viewBox="0 0 24 24" fill="currentColor"><path  d="M18.4 1.6C18 1.2 17.5 1 17 1H7C6.5 1 6 1.2 5.6 1.6C5.2 2 5 2.5 5 3V21C5 21.5 5.2 22 5.6 22.4C6 22.8 6.5 23 7 23H17C17.5 23 18 22.8 18.4 22.4C18.8 22 19 21.5 19 21V3C19 2.5 18.8 2 18.4 1.6M16 7C16 7.6 15.6 8 15 8H9C8.4 8 8 7.6 8 7V5C8 4.4 8.4 4 9 4H15C15.6 4 16 4.4 16 5V7Z"/></svg>
